X:9656
T:Lisdoonvarna
M:C
L:1/8
K:G Major
E|DEGA B2GB|cBAc BAGE|DEGA Bdge|dBAB GFGE|!
DEGA B2GB|cBAc BAGE|DEGA Bdge|dBAB G3:|!
A|Bdd2 cdeg|dgdB ABGA|cdd2 cdeg|dBAB GFGA|!
Bdd2 c2Ac|BcdB ABGE|DEGA Bdge|dBAB G3:|!


